apps/explorer/src/assets/img/Trader.svg

<svg fill="none" height="51" viewBox="0 0 51 51" width="51" xmlns="http://www.w3.org/2000/svg"><circle cx="25.4355" cy="25.0933" fill="#2b4266" r="25"/><path d="m42.4112 12.3995c-.3126-2.1602-7.3355-.8927-9.2131-.5539-.1497.0271-.2665.0482-.3449.0612-.0543.009-.1051-.0359-.0941-.0882.1079-.5226.1859-1.93562-.8492-2.24154-.6619-.19574-1.0984.1654-1.3574.52974-.1158.1635-.463.8701-.6786 1.3607-.1163.2649-.3869.652-.6844.645-1.2475-.3755-2.5007-.5633-3.7538-.5633s-2.5064.1878-3.7541.5633c-.2973.007-.568-.3801-.6844-.645-.2156-.4906-.5625-1.1972-.6785-1.3607-.259-.3643-.6953-.72548-1.3572-.52974-1.0355.30592-.9574 1.71894-.8493 2.24154.0109.0523-.0399.0972-.0944.0882-.078-.013-.1948-.0341-.3441-.0611-1.8765-.3386-8.90099-1.6066-9.21382.5538-.32028 2.2123 2.57352 5.2633 5.60162 6.6344.1598.0724.3018.1721.4439.272.1178.0827.2356.1655.3639.2329.4767.2508.7609.8766.6911 1.4412v7.9042c2.3877-1.6238 5.8973-2.6343 9.8753-2.6343 3.9779 0 7.4876 1.0105 9.8753 2.6344v-7.9043c-.0699-.5646.2142-1.1904.6907-1.4412.1287-.0675.2468-.1504.3647-.2333.1419-.0997.2837-.1992.4432-.2716 3.0281-1.3711 5.9223-4.422 5.6016-6.6344zm-17.9478 8.2939c-.1244.6457-1.2322 1.0503-2.1391 1.2764-.724.176-1.4659.2645-2.2148.2645-.1893 0-.379-.0057-.5689-.0169-.2934-.0178-.5452-.0693-.7698-.1577-.4411-.1732-.8227-.4748-1.1029-.8718-.3925-.5385-.544-1.1422-.4337-1.7395.1074-.5953.4626-1.1111 1.0264-1.4899.3951-.2748.8589-.4317 1.3347-.4489.2452-.0084.4985.0268.7786.1068.9039.2582 1.7541.6459 2.5267 1.1523.7767.5147 1.6765 1.2632 1.5645 1.9145zm8.7352.5009c-.2751.3903-.6566.6919-1.0984.8657-.2246.0881-.4761.1396-.7695.1574-.1899.0112-.3801.0169-.5695.0169-.7485 0-1.4899-.0885-2.2113-.2639-.9095-.2264-2.017-.6313-2.1422-1.2767-.1129-.6621.7863-1.4103 1.5607-1.9234.7761-.5085 1.6263-.8963 2.5296-1.1539.279-.08.5302-.1158.7772-.1068.4767.0172.9405.1741 1.3427.454.5572.3739.9121.8901 1.0195 1.4874.11.5953-.0415 1.1987-.4388 1.7433z" fill="#cae9ff"/><path d="m22.3125 19.6309c-.6807-.446-1.4329-.789-2.2336-1.0177-.1564-.0448-.2919-.0667-.4128-.0667-.0112 0-.0224.0003-.0333.0005-.269.0096-.5351.1009-.7692.2636-.3406.229-.5311.4959-.5898.8212-.0602.3255.0241.6381.257.9579.1664.2357.3836.4084.6322.5061.1186.0467.263.0746.4415.0853.8348.0504 1.6632-.0237 2.4631-.2182.7259-.1808 1.0955-.363 1.2685-.472-.1243-.1591-.4074-.4514-1.0236-.86z" fill="#ffcf56"/><path d="m32.0148 18.8157c-.2412-.1679-.5073-.2591-.7772-.2687-.1283-.0022-.2741.0172-.4446.0659-.8004.2284-1.5527.5714-2.2368 1.0197-.6142.4072-.8966.6989-1.021.8583.1734.109.5435.2912 1.2714.4725.7967.194 1.6252.2675 2.46.2177.1787-.0107.3231-.0386.4414-.085.2487-.0978.4658-.2707.6274-.4999.2381-.3264.3223-.6386.2624-.9622-.0587-.3275-.2492-.5944-.583-.8183z" fill="#ffcf56"/><path d="m25.4357 27.5649c-6.4976 0-11.7647 2.9324-11.7647 6.5498 0 3.6173 5.2671 6.5496 11.7647 6.5496s11.7648-2.9323 11.7648-6.5496c0-3.6174-5.2674-6.5498-11.7648-6.5498zm-5.5684 7.2191c-1.0067.4749-1.9442 0-2.1239-1.077-.1971-1.1539 1.4113-3.8963 1.7813-1.8226.2117 1.1864.8412.7448 1.3433.3928.3753-.2633.6793-.4764.6836.0788-.0551 1.0478-.7023 1.9811-1.6843 2.428zm13.2605-1.077c-.1801 1.077-1.1175 1.5519-2.1241 1.077-.9819-.4469-1.6293-1.3802-1.684-2.428.0041-.5552.308-.3421.6833-.0788.5019.352 1.1315.7936 1.3434-.3928.3699-2.0737 1.9781.6687 1.7814 1.8226z" fill="#cae9ff"/></svg>

<svg width="51" height="51" viewBox="0 0 51 51" fill="none" xmlns="http://www.w3.org/2000/svg">
<circle cx="25.4355" cy="25.0933" r="25" fill="#2B4266"/>
<path d="M42.4112 12.3995C42.0986 10.2393 35.0757 11.5068 33.1981 11.8456C33.0484 11.8727 32.9316 11.8938 32.8532 11.9068C32.7989 11.9158 32.7481 11.8709 32.7591 11.8186C32.867 11.296 32.945 9.88298 31.9099 9.57706C31.248 9.38132 30.8115 9.74246 30.5525 10.1068C30.4367 10.2703 30.0895 10.9769 29.8739 11.4675C29.7576 11.7324 29.487 12.1195 29.1895 12.1125C27.942 11.737 26.6888 11.5492 25.4357 11.5492C24.1826 11.5492 22.9293 11.737 21.6816 12.1125C21.3843 12.1195 21.1136 11.7324 20.9972 11.4675C20.7816 10.9769 20.4347 10.2703 20.3187 10.1068C20.0597 9.7425 19.6234 9.38132 18.9615 9.57706C17.926 9.88298 18.0041 11.296 18.1122 11.8186C18.1231 11.8709 18.0723 11.9158 18.0178 11.9068C17.9398 11.8938 17.823 11.8727 17.6737 11.8457C15.7972 11.5071 8.77271 10.2391 8.45988 12.3995C8.1396 14.6118 11.0334 17.6628 14.0615 19.0339C14.2213 19.1063 14.3633 19.206 14.5054 19.3059C14.6232 19.3886 14.741 19.4714 14.8693 19.5388C15.346 19.7896 15.6302 20.4154 15.5604 20.98V28.8842C17.9481 27.2604 21.4577 26.2499 25.4357 26.2499C29.4136 26.2499 32.9233 27.2604 35.311 28.8843V20.98C35.2411 20.4154 35.5252 19.7896 36.0017 19.5388C36.1304 19.4713 36.2485 19.3884 36.3664 19.3055C36.5083 19.2058 36.6501 19.1063 36.8096 19.0339C39.8377 17.6628 42.7319 14.6119 42.4112 12.3995ZM24.4634 20.6934C24.339 21.3391 23.2312 21.7437 22.3243 21.9698C21.6003 22.1458 20.8584 22.2343 20.1095 22.2343C19.9202 22.2343 19.7305 22.2286 19.5406 22.2174C19.2472 22.1996 18.9954 22.1481 18.7708 22.0597C18.3297 21.8865 17.9481 21.5849 17.6679 21.1879C17.2754 20.6494 17.1239 20.0457 17.2342 19.4484C17.3416 18.8531 17.6968 18.3373 18.2606 17.9585C18.6557 17.6837 19.1195 17.5268 19.5953 17.5096C19.8405 17.5012 20.0938 17.5364 20.3739 17.6164C21.2778 17.8746 22.128 18.2623 22.9006 18.7687C23.6773 19.2834 24.5771 20.0319 24.4651 20.6832L24.4634 20.6934ZM33.1986 21.1943C32.9235 21.5846 32.542 21.8862 32.1002 22.06C31.8756 22.1481 31.6241 22.1996 31.3307 22.2174C31.1408 22.2286 30.9506 22.2343 30.7612 22.2343C30.0127 22.2343 29.2713 22.1458 28.5499 21.9704C27.6404 21.744 26.5329 21.3391 26.4077 20.6937C26.2948 20.0316 27.194 19.2834 27.9684 18.7703C28.7445 18.2618 29.5947 17.874 30.498 17.6164C30.777 17.5364 31.0282 17.5006 31.2752 17.5096C31.7519 17.5268 32.2157 17.6837 32.6179 17.9636C33.1751 18.3375 33.53 18.8537 33.6374 19.451C33.7474 20.0463 33.5959 20.6497 33.1986 21.1943Z" fill="#CAE9FF"/>
<path d="M22.3125 19.6309C21.6318 19.1849 20.8796 18.8419 20.0789 18.6132C19.9225 18.5684 19.787 18.5465 19.6661 18.5465C19.6549 18.5465 19.6437 18.5468 19.6328 18.547C19.3638 18.5566 19.0977 18.6479 18.8636 18.8106C18.523 19.0396 18.3325 19.3065 18.2738 19.6318C18.2136 19.9573 18.2979 20.2699 18.5308 20.5897C18.6972 20.8254 18.9144 20.9981 19.163 21.0958C19.2816 21.1425 19.426 21.1704 19.6045 21.1811C20.4393 21.2315 21.2677 21.1574 22.0676 20.9629C22.7935 20.7821 23.1631 20.5999 23.3361 20.4909C23.2118 20.3318 22.9287 20.0395 22.3125 19.6309Z" fill="#FFCF56"/>
<path d="M32.0148 18.8157C31.7736 18.6478 31.5075 18.5566 31.2376 18.547C31.1093 18.5448 30.9635 18.5642 30.793 18.6129C29.9926 18.8413 29.2403 19.1843 28.5562 19.6326C27.942 20.0398 27.6596 20.3315 27.5352 20.4909C27.7086 20.5999 28.0787 20.7821 28.8066 20.9634C29.6033 21.1574 30.4318 21.2309 31.2666 21.1811C31.4453 21.1704 31.5897 21.1425 31.708 21.0961C31.9567 20.9983 32.1738 20.8254 32.3354 20.5962C32.5735 20.2698 32.6577 19.9576 32.5978 19.634C32.5391 19.3065 32.3486 19.0396 32.0148 18.8157Z" fill="#FFCF56"/>
<path d="M25.4357 27.5649C18.9381 27.5649 13.671 30.4973 13.671 34.1147C13.671 37.732 18.9381 40.6643 25.4357 40.6643C31.9333 40.6643 37.2005 37.732 37.2005 34.1147C37.2005 30.4973 31.9331 27.5649 25.4357 27.5649ZM19.8673 34.784C18.8606 35.2589 17.9231 34.784 17.7434 33.707C17.5463 32.5531 19.1547 29.8107 19.5247 31.8844C19.7364 33.0708 20.3659 32.6292 20.868 32.2772C21.2433 32.0139 21.5473 31.8008 21.5516 32.356C21.4965 33.4038 20.8493 34.3371 19.8673 34.784ZM33.1278 33.707C32.9477 34.784 32.0103 35.2589 31.0037 34.784C30.0218 34.3371 29.3744 33.4038 29.3197 32.356C29.3238 31.8008 29.6277 32.0139 30.003 32.2772C30.5049 32.6292 31.1345 33.0708 31.3464 31.8844C31.7163 29.8107 33.3245 32.5531 33.1278 33.707Z" fill="#CAE9FF"/>
</svg>
